!!!COM: Gibbons, Orlando
!!!CDT: 1583/12//-1625/06/05/
!!!CNT: English
!!!OTL: The Silver Swanne
!!!PDT: 1612
**kern	**kern	**kern	**kern	**kern
*staff5	*staff4	*staff3	*staff2	*staff1
*Ivox	*Ivox	*Ivox	*Ivox	*Ivox
*clefF4	*clefF4	*clefG2	*clefG2	*clefG2
*k[b-]	*k[b-]	*k[b-]	*k[b-]	*k[b-]
*met(C)	*met(C)	*met(C)	*met(C)	*met(C)
*M4/4	*M4/4	*M4/4	*M4/4	*M4/4
*MM54	*MM54	*MM54	*MM54	*MM54
=1-	=1-	=1-	=1-	=1-
4r	4r	4r	4r	4r
4F\	4A\	4c\	4c/	4cc\
4F\	4A\	4c\	4f/	4cc\
4D\	8G\L	4Bn\	4f/	4dd\
.	8F\J	.	.	.
=2	=2	=2	=2	=2
2.C/	4.G\	2.c\	4.e/	2.ee\
.	8F\	.	8f/	.
.	4E\	.	4g/	.
4AA/	4C/	4c\	4a/	4ff\
=3	=3	=3	=3	=3
4.BB-/	4.D\	4B-\	4.f/	4.dd\
.	.	4B-\	.	.
8C/	(8E\	.	(8e/	8cc\
4D\	8F\L	4f\	4d/)	4b-\
.	8G\	.	.	.
4F\	8A\	4f\	[4c/	4a/
.	8B-\J)	.	.	.
=4	=4	=4	=4	=4
4.C/	4c\	2.e\	8c/L]	2.g/
.	.	.	8d/	.
.	[4C/	.	8e/	.
8D\	.	.	8f/J	.
8E\L	8C/L]	.	4g/	.
8F\J	8D/J	.	.	.
4G\	8E\L	4e\	[4G/	4g/
.	8F\J	.	.	.
=5	=5	=5	=5	=5
4GG/	2G\	4.d\	4G/]	4.b-\
4.BB-/	.	.	4.d/	.
.	.	8c\	.	8cc\
.	2D\	4B-\	.	4dd\
(8C/	.	.	(8e/	.
4D\)	.	4F/	4f/)	4a/
=6	=6	=6	=6	=6
4C/	8E\L	4G/	4e/	4cc\
.	8C\J	.	.	.
4AA/	4c\	4A/	(2f/	4f/
4BB-/	4d\	4G/	.	4.g/
4C/	4c\	4G/	4e/)	.
.	.	.	.	8f/
=7	=7	=7	=7	=7
4FF/	2.c\	2A/	4f/	2f/
4.F\	.	.	4.a/	.
.	.	4r	.	2r
8F\	.	.	8a/	.
4E\	4C/	[4c\	4g/	.
=8	=8	=8	=8	=8
2.D\	4.F\	8c\L]	4f/	4r
.	.	8c\J	.	.
.	.	4B-\	(8d/L	4.ff\
.	8G\	.	8e/J	.
.	8A\L	4A/	8f/L	.
.	8B-\J	.	8g/J	8ff\
4C/	4c\	4A/	4a/)	4ee\
=9	=9	=9	=9	=9
8BB-/L	2d\	4.B-\	4.d/	2.dd\
8BB-/J	.	.	.	.
2B-\	.	.	.	.
.	.	(8c\	8e/	.
.	2r	8d\L	(8f/L	.
.	.	8e\	8g/	.
4A\	.	8f\	8a/)	4cc\
.	.	8c\J)	8f/J	.
=10	=10	=10	=10	=10
1G	4G\	4e-\	2.g/	4bn\
.	2c\	4e-\	.	4cc\
.	.	2d\	.	4.dd\
.	4Bn\	.	4g/	.
.	.	.	.	8cc\
=11	=11	=11	=11	=11
4C/	4c\	4g\	4e/	2cc\
2F\	4A\	4c\	4f/	.
.	4B-\	4d\	4.g/	4r
4E\	4c\	[4c\	.	4gg\
.	.	.	8g/	.
=12	=12	=12	=12	=12
4F\	4A\	4c\]	4a/	4cc\
4D\	4d\	(8d\L	4f/	4ff\
.	.	8f\J)	.	.
4E-\	8G\L	4e-\	4.g/	4b-\
.	8G\J	.	.	.
4BB-/	[4B-\	4d\	.	4dd\
.	.	.	8f/	.
=13	=13	=13	=13	=13
2.C/	4B-\]	2c\	4e/	4g/
.	4A\	.	(2f/	8a/L
.	.	.	.	8b-/J
.	2G\	2c\	.	4.cc\
4C/	.	.	4e/)	.
.	.	.	.	(8b-\
=14	=14	=14	=14	=14
4FF/	2F\	2c\	4f/	2a/)
4.F\	.	.	4.a/	.
.	4r	4r	.	2r
8F\	.	.	8a/	.
4E\	4C/	[4c\	4g/	.
=15	=15	=15	=15	=15
2.D\	4.F\	8c\L]	4f/	4r
.	.	8c\J	.	.
.	.	4B-\	(8d/L	4.ff\
.	8G\	.	8e/J	.
.	8A\L	4A/	8f/L	.
.	8B-\J	.	8g/J	8ff\
4C/	4c\	4A/	4a/)	4ee\
=16	=16	=16	=16	=16
8BB-/L	2d\	4.B-\	4.d/	2.dd\
8BB-/J	.	.	.	.
2B-\	.	.	.	.
.	.	(8c\	8e/	.
.	2r	8d\L	8f/L	.
.	.	8e\	(8g/	.
4A\	.	8f\	8a/	4cc\
.	.	8c\J)	8f/J)	.
=17	=17	=17	=17	=17
1G	4G\	4e-\	2.g/	4bn\
.	2c\	4e-\	.	4cc\
.	.	2d\	.	4.dd\
.	4Bn\	.	4g/	.
.	.	.	.	8cc\
=18	=18	=18	=18	=18
4C/	4c\	4g\	4e/	2cc\
2F\	4A\	4c\	4f/	.
.	4B-\	4d\	4.g/	4r
4E\	4c\	[4c\	.	4gg\
.	.	.	8g/	.
=19	=19	=19	=19	=19
4F\	4A\	4c\]	4a/	4cc\
4D\	4d\	(8d\L	4f/	4ff\
.	.	8f\J)	.	.
4E-\	8G\L	4e-\	4.g/	4b-\
.	8G\J	.	.	.
4BB-/	[4B-\	4d\	.	4dd\
.	.	.	8f/	.
=20	=20	=20	=20	=20
2.C/	4B-\]	2c\	4e/	4g/
.	(4A\	.	(2f/	8a/L
.	.	.	.	8b-/J
.	2G\)	2c\	.	4.cc\
4C/	.	.	4e/)	.
.	.	.	.	8b-\
=21	=21	=21	=21	=21
1FF;	1F;	1c	1f;	1a;
==	==	==	==	==
*-	*-	*-	*-	*-
!!!ENC: Craig Stuart Sapp
!!!END: 2004/11/27/
